public/avatar/shoe/5.svg

<svg xmlns:xlink="http://www.w3.org/1999/xlink" height="38.3" width="36.05" xmlns="http://www.w3.org/2000/svg"><use height="15.8" transform="translate(9.1 11.95)" width="22.75" xlink:href="#a"/><defs><g id="a"><path d="m4.35-1.35-2.9.85-1.8.15q-1.85-.1-4.4-.95Q-2.2-2.7.95-2.35q1.8.15 3.4 1" fill="#004566" fill-rule="evenodd" transform="translate(14.7 2.9)"/><path d="m-.35-.35 1.8-.15 2.9-.85 3.1 6.55-1.6 1.75-.9.55Q2.7 8.65-1.2 9.65l-3.65.7q-4.9.6-8.4-.7l-.55-.3-.25-.35q-.55-.95 1.1-2.95L-12.1 5l1.4-1.35q3.8 2.15 6.45.3 2.6-1.9 3.9-4.3" fill-rule="evenodd" transform="translate(14.7 2.9)"/><path d="M-4.75-1.3q2.55.85 4.4.95-1.3 2.4-3.9 4.3-2.65 1.85-6.45-.3L-6.65-.1l1.9-1.2" fill="#666" fill-rule="evenodd" transform="translate(14.7 2.9)"/><path d="m-14.05 9 .25.35.55.3q3.5 1.3 8.4.7l3.65-.7q3.9-1 6.15-2.15l.9-.55 1.6-1.75q.2 1.9-.05 2.3l-.1.15q-1.85 2.25-8.4 3.9-7.25 1.75-12.05 0l-.55-.3q-.35-.35-.35-2.25" fill="#fff" fill-rule="evenodd" transform="translate(14.7 2.9)"/><path d="M-.35-.35q-1.3 2.4-3.9 4.3-2.65 1.85-6.45-.3" fill="none" stroke="#fff" stroke-linecap="round" stroke-linejoin="round" transform="translate(14.7 2.9)"/><path d="M4.35-1.35q-1.6-.85-3.4-1-3.15-.35-5.7 1.05l-1.9 1.2-4.05 3.75L-12.1 5l-.85 1.05q-1.65 2-1.1 2.95 0 1.9.35 2.25l.55.3q4.8 1.75 12.05 0 6.55-1.65 8.4-3.9l.1-.15q.25-.4.05-2.3l-3.1-6.55" fill="none" stroke="#000" stroke-linecap="round" stroke-linejoin="round" transform="translate(14.7 2.9)"/></g></defs></svg>

<?xml version="1.0" encoding="UTF-8" standalone="no"?>
<svg xmlns:xlink="http://www.w3.org/1999/xlink" height="38.3px" width="36.05px" xmlns="http://www.w3.org/2000/svg">
  <g transform="matrix(1.0, 0.0, 0.0, 1.0, 23.8, 14.85)">
    <use height="15.8" transform="matrix(1.0, 0.0, 0.0, 1.0, -14.7, -2.9)" width="22.75" xlink:href="#shape0"/>
  </g>
  <defs>
    <g id="shape0" transform="matrix(1.0, 0.0, 0.0, 1.0, 14.7, 2.9)">
      <path d="M4.35 -1.35 L1.45 -0.5 -0.35 -0.35 Q-2.2 -0.45 -4.75 -1.3 -2.2 -2.7 0.95 -2.35 2.75 -2.2 4.35 -1.35" fill="#004566" fill-rule="evenodd" stroke="none"/>
      <path d="M-0.35 -0.35 L1.45 -0.5 4.35 -1.35 7.45 5.2 5.85 6.95 4.95 7.5 Q2.7 8.65 -1.2 9.65 L-4.85 10.35 Q-9.75 10.95 -13.25 9.65 L-13.8 9.35 -14.05 9.0 Q-14.6 8.05 -12.95 6.05 L-12.1 5.0 -10.7 3.65 Q-6.9 5.8 -4.25 3.95 -1.65 2.05 -0.35 -0.35" fill="#000000" fill-rule="evenodd" stroke="none"/>
      <path d="M-4.75 -1.3 Q-2.2 -0.45 -0.35 -0.35 -1.65 2.05 -4.25 3.95 -6.9 5.8 -10.7 3.65 L-6.65 -0.1 -4.75 -1.3" fill="#666666" fill-rule="evenodd" stroke="none"/>
      <path d="M-14.05 9.0 L-13.8 9.35 -13.25 9.65 Q-9.75 10.95 -4.85 10.35 L-1.2 9.65 Q2.7 8.65 4.95 7.5 L5.85 6.95 7.45 5.2 Q7.65 7.1 7.4 7.5 L7.3 7.65 Q5.45 9.9 -1.1 11.55 -8.35 13.3 -13.15 11.55 L-13.7 11.25 Q-14.05 10.9 -14.05 9.0" fill="#ffffff" fill-rule="evenodd" stroke="none"/>
      <path d="M-0.35 -0.35 Q-1.65 2.05 -4.25 3.95 -6.9 5.8 -10.7 3.65" fill="none" stroke="#ffffff" stroke-linecap="round" stroke-linejoin="round" stroke-width="1.0"/>
      <path d="M4.35 -1.35 Q2.75 -2.2 0.95 -2.35 -2.2 -2.7 -4.75 -1.3 L-6.65 -0.1 -10.7 3.65 -12.1 5.0 -12.95 6.05 Q-14.6 8.05 -14.05 9.0 -14.05 10.9 -13.7 11.25 L-13.15 11.55 Q-8.35 13.3 -1.1 11.55 5.45 9.9 7.3 7.65 L7.4 7.5 Q7.65 7.1 7.45 5.2 L4.35 -1.35" fill="none" stroke="#000000" stroke-linecap="round" stroke-linejoin="round" stroke-width="1.0"/>
    </g>
  </defs>
</svg>
